pro/src/icons/full-code.svg

<svg width="48" height="48" viewBox="0 0 48 48"  xmlns="http://www.w3.org/2000/svg">
  <path id="icon" fill-rule="evenodd" clip-rule="evenodd" d="M20.7074 4.87615C21.3601 4.22347 22.273 3.90529 23.1914 4.02471L38.1592 5.89693C38.2217 5.90474 38.282 5.91817 38.3399 5.93666C38.7392 6.02542 39.0583 6.35644 39.112 6.78556L40.8963 21.7294C41.0028 22.5485 40.7614 23.3818 40.229 24.0142C38.7866 23.3627 37.1856 23 35.5 23C29.1487 23 24 28.1487 24 34.5C24 36.1896 24.3644 37.7941 25.0189 39.2393L23.2117 41.0464C22.0458 42.2123 20.1502 42.2123 18.9843 41.0464L9.07375 31.1359C9.00148 31.0636 8.94263 30.983 8.89722 30.8971L5.23675 27.2367C5.15905 27.193 5.08596 27.1381 5.01985 27.072L3.87441 25.9266C2.70853 24.7607 2.70853 22.8651 3.87441 21.6992L20.7074 4.87615ZM30.2071 18.6982C32.4084 18.6982 34.1913 16.9153 34.1913 14.7141C34.1913 12.5128 32.4084 10.7299 30.2071 10.7299C28.0059 10.7299 26.223 12.5128 26.223 14.7141C26.223 16.9153 28.0159 18.6982 30.2071 18.6982ZM45 34.5C45 29.2534 40.7466 25 35.5 25C30.2534 25 26 29.2534 26 34.5C26 39.7466 30.2534 44 35.5 44C40.7466 44 45 39.7466 45 34.5ZM36.4734 29.9734C36.4734 29.4361 36.0378 29 35.5 29C35.0073 29 34.5998 29.366 34.5354 29.8416L34.5266 29.9734V33.5266H30.9734C30.4361 33.5266 30 33.9627 30 34.5C30 34.9927 30.366 35.4002 30.841 35.4646L30.9734 35.4734H34.5266V39.0266C34.5266 39.5639 34.9621 40 35.5 40C35.9927 40 36.4002 39.634 36.4646 39.159L36.4734 39.0266V35.4734H40.0266C40.5639 35.4734 41 35.0378 41 34.5C41 34.0073 40.634 33.5998 40.159 33.5354L40.0266 33.5266H36.4734V29.9734Z" fill="currentColor"/>
</svg>

<svg xmlns="http://www.w3.org/2000/svg" width="48" height="48"><path id="icon" fill="currentColor" fill-rule="evenodd" d="M20.707 4.876a2.97 2.97 0 0 1 2.484-.851L38.16 5.897q.094.012.18.04c.4.088.72.42.773.849l1.784 14.943a2.96 2.96 0 0 1-.667 2.285A11.5 11.5 0 0 0 35.5 23C29.149 23 24 28.149 24 34.5c0 1.69.364 3.294 1.019 4.74l-1.807 1.806a2.99 2.99 0 0 1-4.228 0l-9.91-9.91a1 1 0 0 1-.177-.239l-3.66-3.66a1 1 0 0 1-.217-.165l-1.146-1.145a2.99 2.99 0 0 1 0-4.228zm9.5 13.822a3.983 3.983 0 0 0 3.984-3.984 3.983 3.983 0 0 0-3.984-3.984 3.983 3.983 0 1 0 0 7.968M45 34.5a9.5 9.5 0 1 0-19 0 9.5 9.5 0 0 0 19 0m-8.527-4.527a.973.973 0 0 0-1.938-.131l-.008.131v3.554h-3.554a.974.974 0 0 0-.132 1.938l.132.008h3.554v3.554a.973.973 0 0 0 1.938.132l.008-.132v-3.554h3.554a.973.973 0 0 0 .132-1.938l-.132-.008h-3.554z" clip-rule="evenodd"/></svg>
